X: 1699
T:Tommy Peoples
S:Jeff Myers, name from P.Varlet, Ir-Trad, 8/97
M:4/4
L:1/8
R:reel
O::|
K:G
G2 BG cABG|A~D3 FGAF|G2 BG cABG|1Addc AGFA:|2Addc AG G2||
g2 dg egde|g2 ag fgaf|g2 dg egdB|cBAB BG G2:||
